X:1
T:Title
%%score 1 { ( 2 3 ) | ( 4 5 ) }
L:1/8
Q:1/4=90
M:4/4
K:C
V:1 treble nm="Akkordion"
V:2 bass nm="Grand Piano"
V:3 bass 
V:4 bass 
V:5 bass 
V:1
 E2 F>E G2 D2 | E2 G>c c4 | c2 BA G>F E2 | D2 E>D D2 z2 | E2 F>E G2 D2 | E2 G>c c4 | cBdc BA G2 | %7
w: Frank~L.~Armstrong * * * *|||||||
 E3/2-(3:2:2E/G/4 F>D C4 | z8 | z8 | z8 | z8 | z8 | z8 | z8 | z8 | z8 | z8 | z8 | z8 |] %20
w: |||||||||||||
V:2
 z EEE z[K:treble] FFF | z GGG[K:bass] z EEE | z[K:treble] AAA[K:bass] z[K:treble] GGG | %3
 z ^FFF [B,DG]2 [B,D=F]2 | z EEE z[K:treble] FFF | z GGG[K:bass] z EEE | z[K:treble] FFF z F E2 | %7
 E2 z2 z4 | [Ec]4 cBcA | [CEG]4 [G,CE]2 z2 | [B,DG]4 [C^FA]2 [Fc]2 | [DGB]6 z2 | [Ec]3 [Ec] cBEB | %13
 [CA]6 z2 | [FA]3 [FA] [^FA][FA][FB][FA] | ^G6 z2 | G3 B A2 G2 | [CEc]6 z2 | z4 z2 D2 | C6 z2 |] %20
V:3
 C,2 z2 D,2[K:treble] z2 | D,2 z2[K:bass] C,2 z2 | F,2[K:treble] z2[K:bass] C,2[K:treble] z2 | %3
 D,2 z2 z4 | C,2 z2 D,2[K:treble] z2 | E,2 z2[K:bass] C,2 z2 | F,2[K:treble] z2 F,2 z2 | %7
 z z/ (3:2:2z/ G/4 F>[B,D] C4 | z4 F2 F2 | x8 | x8 | x8 | x8 | x8 | x8 | x8 | x8 | x8 | %18
 [F,CF]4 [G,CE]2 [G,C]B, | x8 |] %20
V:4
 z [G,C][G,C][G,C] z [G,B,][G,B,][G,B,] | z[K:treble] [G,C][G,C][G,C] z [G,C][G,C][G,C] | %2
 z [CF][CF][CF] z [CE][CE][CE] | z [CD][CD][CD][K:bass] G,,2 G,2 | %4
 z [G,C][G,C][G,C] z [G,B,][G,B,][G,B,] | z [G,C][G,C][G,C] z [G,C][G,C][G,C] | %6
 z [A,C][A,C][A,C] z [A,C] [C,G,C]2 | [^C,_B,]2 [D,A,D]>[G,,G,] [=C,E,]4 | [C,G,]4 A,^G,A,F, | %9
 C,4 C,2 z2 | G,4 D,2 [D,A,]2 | G,,6 z2 | [A,,A,]3 [A,,A,] [E,^G,D][E,G,D][E,G,D][E,G,D] | %13
 [A,,A,]6 z2 | [D,A,]3 [D,A,] [_E,B,][E,B,][E,B,][E,B,] | [E,B,E]6 z2 | %16
 [G,B,F]3 [G,DF] [G,CF]2 [G,B,F]2 | C,6 z2 | A,,4 G,,2 z F, | [C,E,]6 z2 |] %20
V:5
 x8 | x[K:treble] x7 | x8 | x4[K:bass] x4 | x8 | x8 | x8 | x8 | z4 C,2 C,2 | x8 | x8 | x8 | x8 | %13
 x8 | x8 | x8 | x8 | x8 | z4 z2 G,,2 | x8 |] %20

